X:1
T:Title
%%score { ( 1 3 ) | ( 2 4 ) }
L:1/8
M:4/4
K:F
V:1 treble nm="Grand Piano"
V:3 treble 
V:2 bass 
V:4 bass 
V:1
 z4 z2[Q:1/4=100] A>B | c2 c>c c2 A>c | [EB]2 [EA]>[EG] F2 F>F | [EG]2 [EG]>[EG] [Ec]2 [EG]2 | %4
 A6 A>B | c2 c>c c2 A>c |[M:9/8] [Fd]2 [Fd]- [Fd]/[Fd]/ [Fc]2- [Fc][A,CF]>[DFG] | %7
[M:4/4] [CFA]2 [A,CF]>[CFA] [CEG]2 [B,EG]2 | [A,CF]6 z2 | [Fc]4 d4 | c2 c>A c2 A2 | F2 A>B c2 A2 | %12
 [EG]6 z2 | c2 c>c c2 A>c |[M:9/8] [Fd]2 [Fd]- [Fd] [Fc]2- [Fc][A,CF]>[DFG] | %15
[M:4/4] [CFA]2 [A,CF]>[CFA] [CEG]2 [B,EG]2 |[M:3/4] [A,CF]6 |] %17
V:2
 z4 z2 [F,CF]>[F,B,F] | [F,A,F]2 [F,A,F]>[F,A,F] [F,A,F]2 [F,CF]>[F,A,F] | %2
 [C,G,]2 [C,C]>[C,B,] [F,A,C]2 [F,A,C]>[F,A,C] | [C,C]2 [C,C]>[C,C] [C,G,]2 [C,C]2 | %4
 [F,CF]6 [F,CF]>[F,B,F] | [F,A,F]2 [F,A,F]>[F,A,F] [F,A,F]2 [F,CF]>[F,A,F] | %6
[M:9/8] [B,,B,]2 [B,,B,]- [B,,B,]/[B,,B,]/ [F,A,]2- [F,A,]F,>B,, |[M:4/4] C,2 C,>C, C,2 C,2 | %8
 F,6 z2 | z4 F4 | [F,A,F]2 [F,A,F]>[F,CF] [F,A,F]2 [F,CF]2 | %11
 [F,A,C]2[K:treble] [F,CF]>[G,CE] [A,CF]2[K:bass] [F,CF]2 | [C,C]2 C,2 C,2 [F,CF]>[F,B,F] | %13
 [F,A,F]2 [F,A,F]>[F,A,F] [F,A,F]2 [F,CF]>[F,A,F] | %14
[M:9/8] [B,,B,]2 [B,,B,]- [B,,B,] [F,A,]2- [F,A,]F,>B,, |[M:4/4] C,2 C,>C, C,2 C,2 |[M:3/4] F,6 |] %17
V:3
 x8 | x8 | x8 | x8 | x8 | x8 |[M:9/8] x9 |[M:4/4] x8 | x8 | z2 A,>A, z2 B,2 | x8 | x8 | %12
 z2 C2 C2 A>B | x8 |[M:9/8] x9 |[M:4/4] x8 |[M:3/4] x6 |] %17
V:4
 x8 | x8 | x8 | x8 | x8 | x8 |[M:9/8] x9 |[M:4/4] x8 | x8 | [F,A,]2 F,>F, [F,B,]2 F,2 | x8 | %11
 x2[K:treble] x4[K:bass] x2 | x8 | x8 |[M:9/8] x9 |[M:4/4] x8 |[M:3/4] x6 |] %17

